X: 904
T: Alice's
R: reel
M: 4/4
K: Bminor
|:Bdfd edBA|B2dB ABFA|Bdfd e2 (3fga|b2af edBA|
Bdfd edBA|B2dB ABFA|AFEF ABce|1 f2ec dBBA:|2 fdec dBBc||
|:d2AF Adfd|e2BG Bgfe|d2AF Adfd|egfe dBBc|
d2AF Adfd|e2 BG Bgfe|d2AF Adfd|egfe dBBA:|

